X:1
T:Title
%%score { ( 1 3 ) | ( 2 4 ) }
L:1/8
Q:1/4=100
M:4/4
K:G
V:1 treble nm="Grand Piano"
V:3 treble 
V:2 bass 
V:4 bass 
V:1
 [DB]3 [CA] [Ec]2 [DB]2 | [CA]3 [B,G] [DB]2 [G,D]2 | [G,CE]3 [G,CE] [G,B,D][DB][A,DA][B,G] | %3
w: James~McGranahan * * *|||
 z2 e2 d2 c2 | B3 [FA] [Ec]2 [DB]2 | [CA]3 [B,G] [DB]2 D2 | E[Ec][DB][CEA] [B,DG]2 [CDF]2 | %7
w: ||||
 [B,DG]6 z2 | A4 B2 A2 | G4 D4 | BBBc d2 B2 | [FA]2 e2 d2 c2 | B2 [FA]2 [Fc]3 [GB] | %13
w: ||||||
 [Ed]2 [Ec]2 [CE]2 [EA]2 | [EA]GFG B3 A | [B,DG]6 z2 |] %16
w: |||
V:2
 [G,,G,]3 [G,,G,] [G,,G,]2 [G,,G,]2 | [G,,E,]3 [G,,D,] [G,,G,]2 B,,2 | C,3 C, G,,G,F,E, | %3
 z2[K:treble] c2 B2 A2 | [G,DG]3[K:bass] [D,C] [G,,G,]2 [G,,G,]2 | %5
 [G,,E,]3 [G,,D,] [G,,G,]2 [B,,G,]2 | [C,G,C][A,,G,][B,,G,]C, D,2 D,2 | A,,6 z2 | %8
 [D,F,D]4 [D,G,D]2 [D,CD]2 | [G,B,D]4 [G,B,]4 | [G,DG][G,DG][G,DG][A,DG] [B,DG]2 [G,DG]2 | %11
 z2 c2 B2 A2 | [G,DG]2[K:bass] [D,C]2 [^D,A,]3 [E,G,] | [C,G,]2 [C,G,]2 [C,A,]2 [C,C]2 | %14
 [D,C][D,B,D][D,A,D][D,B,D] [D,G,D]3 [D,CD] | G,,6 z2 |] %16
V:3
 x8 | x8 | x8 | [DFA]6 z2 | x8 | x8 | x8 | x8 | x8 | x8 | x8 | x8 | x8 | x8 | x8 | x8 |] %16
V:4
 x8 | x8 | x8 | D,6[K:treble] z2 | x3[K:bass] x5 | x8 | x8 | x8 | x8 | x8 | x8 | [D,D]6 z2 | %12
 x2[K:bass] x6 | x8 | x8 | x8 |] %16

